X: 1
T: Judy's Reel
T: The Maid Behind the Bar
N: Scottish version of Maid Behind the Bar, enough different to have both
Z: 1997 by John Chambers <jc@trillian.mit.edu>
W: C|
L: 1/8
K: D
DE \
|: "D"FAAB AFED | FAA[BG] ABde | "Bm"fBBA Bcde | f2ef "A7"edBA |
|  "D"FAAB AFED | FAA[BG] ABde | "Bm"fBBA "G"BcdB | "A7"AFEF "D"D2z2 :|
g \
|: "D"fgab afde | fdad bdfd | "Em"efga bgef | gebe "A7"gfeg |
|  "D"fgaf bfaf | defd efde | "Bm"fBBA "G"BcdB | "A7"AFEF "D"D2z2 :|
